X: 1
T: Gan Ainm
M: 4/4
L: 1/8
R: reel
K: Bdor
fe|:fB B2 FBAB|fBBg agae|(3fga ed cAAF|EAce gagb|
fB B2 FBAB|fBBg agaB|g3 a2 f3|1 dBcA B2 fe:|2 dBcA B2 A2||
|:BdcB BAFE|DEFA Bcdf|fecB AFED|CEAB cdec|
Bdcd BAFE|DEFA BcdB|c2 AB ceac|1 ceac B2 A2:|2 ceac B4||
